X:1
T:Title
%%score { 1 | 2 }
L:1/8
M:2/4
K:F
V:1 treble nm="Grand Piano"
V:2 bass 
V:1
 z2 z[Q:1/4=90] C | CF FA | [FA][EG] [EG][EG] | [FA][GB] [Ac][FA] |[M:3/8] [EG]3 |[M:1/8] A | %6
[M:2/4] [DB][DB] [DB][EG] | AA AF | [FA][EG] FE | F4 | FF FA | c3 A | [GB][GB] [FA][FA] | [EG]3 C | %14
 FA AF | [DG][DB] [DB][DG] | F2 E>E |[M:3/8] F3 |] %18
V:2
 z2 z [F,A,] | [F,A,][F,A,C] [F,A,C][F,CF] | [C,C][C,C] [C,C][C,C] | [F,C][F,C] [F,C][F,C] | %4
[M:3/8] [C,C]3 |[M:1/8] [F,F] |[M:2/4] [B,,F,][B,,F,] [B,,F,][C,C] | [F,CF][F,CF] [F,CF][F,A,] | %8
 [C,C][C,B,] [C,A,][C,G,C] | [F,A,C]4 | [F,A,C][F,A,C] [F,A,C][F,CF] | [F,A,F]3 [F,CF] | %12
 [E,C][E,C] [F,C][F,C] | [C,C]3 [F,A,] | [F,A,C][F,C] [F,CF][F,A,] | %15
 [B,,F,][B,,F,] [B,,F,][B,,B,] | [C,A,C]2 [C,G,C]>[C,G,C] |[M:3/8] [F,A,C]3 |] %18

